app/dist/common/images/erlebnis-akademie-ag.svg

<svg height="18" viewBox="0 0 18 18" width="18" xmlns="http://www.w3.org/2000/svg"><path d="m0 0h18v18h-18z" fill="#f0f3fa"/><path d="m14.55 6h1.45l-2 2.8 2 3.2h-1.45l-1.55-2.45v-1.4zm-3.55 3.17v-.92c-1.45 0-3 .5-3 1.95 0 1.43 1.25 1.8 1.88 1.8.51 0 .96-.21 1.12-.32v-1.02c-.1.08-.4.21-.84.21-.55 0-1.02-.3-1.02-.72 0-.77 1.29-.97 1.86-.98z" fill="#422110"/><path d="m11.43 8.05v3.95h1.14v-3.95c0-.31-.13-2.05-2.25-2.05a2.2 2.2 0 0 0 -2.32 1.92l1.18.28c.02-.18.1-1.07 1.1-1.07.81 0 1.16.62 1.15.92z" fill="#422110"/><path d="m6.98 9.38.02-.38c0-1.66-1.12-3-2.5-3s-2.5 1.34-2.5 3 1.12 3 2.5 3c1.04 0 1.93-.76 2.3-1.84l-1.09-.38c-.2.66-.67 1.1-1.21 1.1-.73 0-1.25-.93-1.25-1.98s.52-1.78 1.25-1.78c.57 0 .98.4 1.17 1.13h-1.67v1.13z" fill="#afcb07"/></svg>

<!-- by TradingView --><svg width="18" height="18" viewBox="0 0 18 18" xmlns="http://www.w3.org/2000/svg"><path fill="#F0F3FA" d="M0 0h18v18H0z"/><path d="M14.55 6H16l-2 2.8 2 3.2h-1.45L13 9.55v-1.4L14.55 6ZM11 9.17v-.92c-1.45 0-3 .5-3 1.95C8 11.63 9.25 12 9.88 12c.51 0 .96-.21 1.12-.32v-1.02c-.1.08-.4.21-.84.21-.55 0-1.02-.3-1.02-.72 0-.77 1.29-.97 1.86-.98Z" fill="#422110"/><path d="M11.43 8.05V12h1.14V8.05c0-.31-.13-2.05-2.25-2.05A2.2 2.2 0 0 0 8 7.92l1.18.28c.02-.18.1-1.07 1.1-1.07.81 0 1.16.62 1.15.92Z" fill="#422110"/><path d="M6.98 9.38 7 9c0-1.66-1.12-3-2.5-3S2 7.34 2 9s1.12 3 2.5 3c1.04 0 1.93-.76 2.3-1.84l-1.09-.38c-.2.66-.67 1.1-1.21 1.1-.73 0-1.25-.93-1.25-1.98 0-1.05.52-1.78 1.25-1.78.57 0 .98.4 1.17 1.13H4v1.13h2.98Z" fill="#AFCB07"/></svg>
